X:9
T:Banish Misfortune
M:6/8
R:jig
C:Traditional
K:Dmix
fed cAG | A2d cAG | F3 DED | F3 GFG |
A3 cAG | AGA cde | fed cAG | Ad^c d2e :|
|: f2d d^cd | f2g agf | e2c cBc | e2f gfe |
f2g agf | e2f gfe | fed cAG | Ad^c d2e :|
|: f2g e2f | d2e cdc | A3 GAG | FGF AFD |
c3 cAG | AGA cde | fed cAG | Ad^c d2e :|

%%newpage
%%scale .60
%%staffsep 30

